tools/download-figma-icons/icons/outlined-medium/printer.svg

<svg width="24" height="24" viewBox="0 0 24 24" fill="none" xmlns="http://www.w3.org/2000/svg">
<path fill-rule="evenodd" clip-rule="evenodd" d="M19.5 17.2483V19.4983H22.5V11.9909C22.5 11.1644 21.8272 10.4909 21 10.4909H18.765C18.7624 10.4909 18.7599 10.4916 18.7575 10.4924C18.7551 10.4931 18.7526 10.4939 18.75 10.4939H5.25013C5.2475 10.4939 5.24506 10.4931 5.24263 10.4924C5.24019 10.4916 5.23775 10.4909 5.23513 10.4909H3.00015C2.17291 10.4909 1.50016 11.1644 1.50016 11.9909V19.4983H4.50013V17.2483C4.50013 16.8336 4.83538 16.4983 5.25013 16.4983H18.75C19.1647 16.4983 19.5 16.8336 19.5 17.2483ZM6.00012 22.4983H18V20.2483V17.9983H6.00012V20.2483V22.4983ZM18 8.99091H6.00012V1.49998H18V8.99091ZM19.5 8.99091H21C22.6545 8.99091 24 10.3364 24 11.9909V20.2483C24 20.663 23.6648 20.9983 23.25 20.9983H19.5V23.2483C19.5 23.663 19.1648 23.9983 18.7501 23.9983H5.25019C4.83544 23.9983 4.5002 23.663 4.5002 23.2483V20.9983H0.750237C0.335491 20.9983 0.000244138 20.663 0.000244138 20.2483V11.9909C0.000244138 10.3364 1.34573 8.99091 3.00021 8.99091H4.5002V0.749992C4.5002 0.335247 4.83544 0 5.25019 0H18.7501C19.1648 0 19.5 0.335247 19.5 0.749992V8.99091ZM3.75014 11.9969H5.25012C5.66487 11.9969 6.00012 12.3321 6.00012 12.7468C6.00012 13.1616 5.66487 13.4968 5.25012 13.4968H3.75014C3.33539 13.4968 3.00015 13.1616 3.00015 12.7468C3.00015 12.3321 3.33539 11.9969 3.75014 11.9969Z" fill="black"/>
</svg>

<svg xmlns="http://www.w3.org/2000/svg" width="24" height="24" fill="none" viewBox="0 0 24 24"><path fill="currentColor" fill-rule="evenodd" d="M19.5 17.248v2.25h3v-7.507c0-.827-.673-1.5-1.5-1.5h-2.235l-.008.001-.007.002H5.25q-.004 0-.007-.002l-.008-.001H3c-.827 0-1.5.673-1.5 1.5v7.507h3v-2.25a.75.75 0 0 1 .75-.75h13.5a.75.75 0 0 1 .75.75M6 22.498h12v-4.5H6zM18 8.991H6V1.5h12zm1.5 0H21c1.654 0 3 1.345 3 3v8.257a.75.75 0 0 1-.75.75H19.5v2.25a.75.75 0 0 1-.75.75H5.25a.75.75 0 0 1-.75-.75v-2.25H.75a.75.75 0 0 1-.75-.75v-8.257c0-1.655 1.346-3 3-3h1.5V.75A.75.75 0 0 1 5.25 0h13.5a.75.75 0 0 1 .75.75zM3.75 11.997h1.5a.75.75 0 1 1 0 1.5h-1.5a.75.75 0 1 1 0-1.5" clip-rule="evenodd"/></svg>
